packages/ui-icons/svg/Line/quiz-stats-cronbachs-alpha.svg

<svg viewBox="0 0 1920 1920" version="1.1" xmlns="http://www.w3.org/2000/svg">
    <path d="M960,1807.05882 C492.875294,1807.05882 112.941176,1427.12471 112.941176,960 C112.941176,492.875294 492.875294,112.941176 960,112.941176 C1427.12471,112.941176 1807.05882,492.875294 1807.05882,960 C1807.05882,1427.12471 1427.12471,1807.05882 960,1807.05882 M960,0 C430.644706,0 0,430.644706 0,960 C0,1489.35529 430.644706,1920 960,1920 C1489.35529,1920 1920,1489.35529 1920,960 C1920,430.644706 1489.35529,0 960,0 M975.224471,1125.22165 C905.991529,1164.07341 780.062118,1220.43106 716.815059,1158.08753 C656.843294,1099.01929 660.118588,949.259294 723.930353,831.009882 C776.222118,734.332235 860.928,684.751059 924.739765,684.751059 C934.226824,684.751059 943.149176,685.880471 951.506824,688.026353 C1012.94682,704.176941 1046.94212,782.106353 1044.68329,901.824 C1043.44094,968.233412 1046.82918,1025.72047 1054.73506,1074.51106 C1030.90447,1091.79106 1004.47624,1108.73224 975.224471,1125.22165 M1216.35388,1169.38165 C1211.04565,1166.89694 1195.12094,1156.61929 1181.11624,1117.99341 C1388.36329,935.254588 1388.13741,735.687529 1388.02447,725.635765 L1275.08329,726.991059 C1275.08329,733.767529 1273.27624,852.920471 1158.64094,981.447529 C1157.51153,958.520471 1157.05976,932.769882 1157.62447,903.856941 C1162.14212,653.692235 1035.08329,593.268706 980.193882,578.812235 C854.829176,545.833412 704.617412,629.071059 624.655059,777.249882 C546.838588,921.249882 530.462118,1133.12753 637.643294,1238.61459 C670.622118,1271.02871 720.090353,1299.37694 792.824471,1299.37694 C854.264471,1299.37694 932.193882,1279.04753 1030.56565,1223.70635 C1051.008,1212.18635 1070.32094,1200.44047 1088.50447,1188.46871 C1108.49506,1228.67576 1135.37506,1256.34635 1169.14447,1271.93224 C1234.76329,1301.97459 1313.82212,1279.61224 1392.768,1209.70165 L1317.77506,1125.22165 C1277.11624,1161.47576 1237.69976,1178.75576 1216.35388,1169.38165" stroke="none" stroke-width="1" fill-rule="evenodd"/>
</svg>

<svg viewBox="0 0 1920 1920" version="1.1" xmlns="http://www.w3.org/2000/svg">
    <path d="M960 1807.059c-467.125 0-847.059-379.934-847.059-847.059 0-467.125 379.934-847.059 847.059-847.059 467.125 0 847.059 379.934 847.059 847.059 0 467.125-379.934 847.059-847.059 847.059M960 0C430.645 0 0 430.645 0 960s430.645 960 960 960 960-430.645 960-960S1489.355 0 960 0m15.224 1125.222c-69.232 38.851-195.162 95.21-258.409 32.866-59.972-59.069-56.696-208.829 7.115-327.078 52.292-96.678 136.998-146.259 200.81-146.259 9.487 0 18.41 1.13 26.767 3.275 61.44 16.15 95.435 94.08 93.176 213.798-1.242 66.41 2.146 123.896 10.052 172.687-23.83 17.28-50.259 34.221-79.51 50.71m241.129 44.16c-5.308-2.484-21.233-12.762-35.238-51.388 207.247-182.738 207.021-382.305 206.908-392.357l-112.94 1.355c0 6.777-1.808 125.93-116.443 254.457-1.13-22.928-1.581-48.678-1.017-77.591 4.518-250.165-122.54-310.588-177.43-325.045-125.365-32.979-275.577 50.26-355.539 198.438-77.816 144-94.193 355.878 12.988 461.365 32.98 32.414 82.447 60.762 155.181 60.762 61.44 0 139.37-20.33 237.742-75.67 20.442-11.52 39.755-23.267 57.938-35.238 19.991 40.207 46.871 67.877 80.64 83.463 65.62 30.043 144.678 7.68 223.624-62.23l-74.993-84.48c-40.659 36.254-80.075 53.534-101.421 44.16" stroke="none" stroke-width="1" fill-rule="evenodd"/>
</svg>
